!!!OTL: Cameroon
!!!XEN: Cameroon
!!!CNT: African -- sub-Saharan -- Zulu
**kern
*k[f#]
*M4/4
*MM[] !!No tempo given
=1
4g
4d
4e
8c
8c
=2
2d
4r
8a
8a
=3
8b
8g
8g
[8a
8a]
8g
8e
8e
=4
(8fn
[8d
4d)]
4r
8g
8g
=5
4g
4d
4e
8c
8c
=6
2d
4r
8a
8a
=7
4a
8a
8g
8a
8g
8e
8e
=8
(8fn
[8d
4d)]
4cc
4cc
=9
(8b
[8g
2g)]
8e
8e
=10
(8fn
[8d
4d)]
4cc
4cc
=11
(8b
[8g
2g)]
8e
8e
=12
(8fn
[8d
4d)]
4cc
4cc
=13
(8b
[8g
2g)]
8e
8e
=14
(8fn
[8d
4d)]
4a
(8b
8a)
=15
2g
4r
8e
8e
=16
(8fn
[8d
4d)]
2r
!! Repeat from the beginning.
=17
4g
4d
4e
8c
8c
=18
2d
4r
8a
8a
=19
8b
8g
8g
[8a
8a]
8g
8e
8e
=20
(8fn
[8d
4d)]
4r
8g
8g
=21
4g
4d
4e
8c
8c
=22
2d
4r
8a
8a
=23
4a
8a
8g
8a
8g
8e
8e
=24
(8fn
[8d
4d)]
4cc
4cc
=25
(8b
[8g
2g)]
8e
8e
=26
(8fn
[8d
4d)]
4cc
4cc
=27
(8b
[8g
2g)]
8e
8e
=28
(8fn
[8d
4d)]
4cc
4cc
=29
(8b
[8g
2g)]
8e
8e
=30
(8fn
[8d
4d)]
4a
(8b
8a)
=31
2g
4r
8e
8e
=32
(8fn
[8d
4d)]
2r
!! Continuing.
=33
4g
4d
4e
8c
8c
=34
2d
4r
8d
8d
=35
4g
8a
8g
4e
8c
8c
=36
2d
4r
8cc
8cc
=37
8b
8g
4.g
8e
8c
8e
=38
2d
4r
8d
8d
=39
6g
6a
6g
4e
8c
8c
=40
2d
4r
8g
8g
=41
2g
4g
4g
=42
(8fn
8e
4d)
4r
8g
8g
=43
2g
8g
4.a
=44
(8fn
8e
4d)
4r
8g
8g
!! page 85
=45
8g
8g
4d
4e
8c
8c
=46
2d
4r
8d
8d
=47
4g
8a
8g
8e
8d
8c
8e
=48
2d
4cc
4cc
=49
(8b
8g)
4a
8e
8d
8c
8e
=50
2d
4r
8d
8d
=51
4g
8a
8g
8e
8d
8c
8e
=52
2d
4r
8g
8g
=53
2g
4r
8g
8a
=54
(8fn
8e
4d)
4r
8g
8g
=55
2g
4g
4a
=56
(8fn
8e
4d)
4r
8g
8g
=57
8g
8g
4d
4e
8c
8c
=58
2d
4r
8d
8d
=59
6g
6a
6g
8e
8d
8c
8e
=60
2d
4r
8cc
8cc
=61
(8b
8a)
4g
4e
8c
8e
=62
2d
4r
8d
8d
=63
4g
8a
8g
6e
6c
6e
=64
2d
4r
8g
8g
=65
2g
4r
8g
8a
=66
(8fn
8e
2d)
8g
8g
=67
2g
4r
8g
8a
=68
(8fn
8e
2d)
8g
8g
=69
2g
4r
8g
8a
=70
(8fn
8e
2d)
8g
8g
=71
2g
4r
8g
8a
=72
(8fn
8e
2d)
8g
8g
=73
1g;
==
*-
!!!OPR: Miriam Makeba, "The World of African Song"
!!!PPP: Chicago
!!!PPR: Quadrangle Press (12 East Delaware Place)
!!!PDT: 1971///
!!!PPG: 84-85
!!!ENC: David Huron
!!!EMD: 1998/9/29/ Paul von Hippel updated this file in the following ways:
!!!EMD:  (1) changed the representation of slurs from curly braces to parentheses 
!!!EMD:  (2) changed freeform comments into reference records and tandem interpretations
!!!EMD:  (3) changed final barline from triple (===) to double (==)
!!!EMD:  (4) added key signature from printed source
!!!EEV: Version 2.0
